src/assets/duotone/Celo.svg

<?xml version="1.0" encoding="UTF-8"?>
<svg width="24" height="24" viewBox="0 0 24 24" xmlns="http://www.w3.org/2000/svg">
 <path d="m15 16c3.866 0 7-3.134 7-7 0-3.866-3.134-7-7-7s-7 3.134-7 7c0 3.866 3.134 7 7 7z" opacity=".4"/>
 <path d="m9 22c3.866 0 7-3.134 7-7s-3.134-7-7-7c-3.866 0-7 3.134-7 7s3.134 7 7 7z"/>
</svg>

<svg width="24" height="24" viewBox="0 0 24 24"  xmlns="http://www.w3.org/2000/svg">
<path opacity="0.4" d="M15 16C18.866 16 22 12.866 22 9C22 5.13401 18.866 2 15 2C11.134 2 8 5.13401 8 9C8 12.866 11.134 16 15 16Z" />
<path d="M9 22C12.866 22 16 18.866 16 15C16 11.134 12.866 8 9 8C5.13401 8 2 11.134 2 15C2 18.866 5.13401 22 9 22Z" />
</svg>
